X:1
T:The Clumsy Lover
R:reel
M:4/4
L:1/8
K:D
AG|:FA~A2 BAGF|GB~B2 =cBAG|FA~A2 BAGF|GEED EFGE|
|FA~A2 BAGF|GB~B2 =cBAG|FAAF GE~E2|1 FD~D2 D2AG:|2 FD~D2 D2de]
|:fddf ddfd|gddg ddgd|fddf ddfd|edfd gded|
|fddf ddfd|gddg ddgd|fa~a2 ge~e2|1 fddc ~d2de:|2 fddc ~d2AG|]